images/icons/help.svg

<?xml version="1.0" encoding="UTF-8" standalone="no"?>
<!-- Created with Inkscape (http://www.inkscape.org/) -->

<svg
   xmlns:dc="http://purl.org/dc/elements/1.1/"
   xmlns:cc="http://creativecommons.org/ns#"
   xmlns:rdf="http://www.w3.org/1999/02/22-rdf-syntax-ns#"
   xmlns:svg="http://www.w3.org/2000/svg"
   xmlns="http://www.w3.org/2000/svg"
   xmlns:xlink="http://www.w3.org/1999/xlink"
   xmlns:sodipodi="http://sodipodi.sourceforge.net/DTD/sodipodi-0.dtd"
   xmlns:inkscape="http://www.inkscape.org/namespaces/inkscape"
   width="200"
   height="200"
   id="svg2"
   version="1.1"
   inkscape:version="0.91+devel r"
   sodipodi:docname="help.svg">
  <defs
     id="defs4">
    <linearGradient
       id="linearGradient4370">
      <stop
         id="stop4372"
         offset="0"
         style="stop-color:#db6651;stop-opacity:1" />
      <stop
         id="stop4374"
         offset="1"
         style="stop-color:#d44d45;stop-opacity:1" />
    </linearGradient>
    <inkscape:perspective
       sodipodi:type="inkscape:persp3d"
       inkscape:vp_x="13.534465 : 111.04854 : 1"
       inkscape:vp_y="0 : 1000 : 0"
       inkscape:vp_z="213.53447 : 111.04854 : 1"
       inkscape:persp3d-origin="113.53447 : 77.71521 : 1"
       id="perspective3135" />
    <linearGradient
       id="linearGradient4829">
      <stop
         style="stop-color:#f4fbfc;stop-opacity:1;"
         offset="0"
         id="stop4831" />
      <stop
         style="stop-color:#d6d6d6;stop-opacity:1;"
         offset="1"
         id="stop4833" />
    </linearGradient>
    <clipPath
       clipPathUnits="userSpaceOnUse"
       id="clipPath4282">
      <rect
         style="color:#000000;fill:#4d4d4d;fill-opacity:1;fill-rule:nonzero;stroke:none;stroke-width:9.13434315;marker:none;visibility:visible;display:inline;overflow:visible;enable-background:accumulate"
         id="rect4284"
         width="246.875"
         height="234.375"
         x="462.5"
         y="1646.1122"
         ry="17"
         rx="17" />
    </clipPath>
    <linearGradient
       inkscape:collect="always"
       xlink:href="#linearGradient4829"
       id="linearGradient4835"
       x1="102.29776"
       y1="-0.42686829"
       x2="102.29776"
       y2="199.16539"
       gradientUnits="userSpaceOnUse" />
    <linearGradient
       inkscape:collect="always"
       xlink:href="#linearGradient5423"
       id="linearGradient5429"
       x1="408.66196"
       y1="44.604382"
       x2="408.66196"
       y2="562.04968"
       gradientUnits="userSpaceOnUse" />
    <linearGradient
       id="linearGradient5423">
      <stop
         style="stop-color:#db8451;stop-opacity:1;"
         offset="0"
         id="stop5425" />
      <stop
         style="stop-color:#c85c29;stop-opacity:1;"
         offset="1"
         id="stop5427" />
    </linearGradient>
    <linearGradient
       inkscape:collect="always"
       xlink:href="#linearGradient4370"
       id="linearGradient5473"
       x1="99.036476"
       y1="-0.50471628"
       x2="99.036476"
       y2="199.83986"
       gradientUnits="userSpaceOnUse" />
    <linearGradient
       inkscape:collect="always"
       xlink:href="#linearGradient3986"
       id="linearGradient3992"
       x1="78.5625"
       y1="993.6615"
       x2="120.28125"
       y2="993.6615"
       gradientUnits="userSpaceOnUse" />
    <linearGradient
       inkscape:collect="always"
       id="linearGradient3986">
      <stop
         style="stop-color:#000000;stop-opacity:1;"
         offset="0"
         id="stop3988" />
      <stop
         style="stop-color:#000000;stop-opacity:0;"
         offset="1"
         id="stop3990" />
    </linearGradient>
    <linearGradient
       inkscape:collect="always"
       xlink:href="#linearGradient5423-1"
       id="linearGradient5473-2"
       x1="99.036476"
       y1="-0.50471628"
       x2="99.036476"
       y2="199.83986"
       gradientUnits="userSpaceOnUse" />
    <linearGradient
       id="linearGradient5423-1">
      <stop
         style="stop-color:#51b9db;stop-opacity:1;"
         offset="0"
         id="stop5425-2" />
      <stop
         style="stop-color:#2fabd4;stop-opacity:1;"
         offset="1"
         id="stop5427-3" />
    </linearGradient>
    <linearGradient
       y2="199.83986"
       x2="99.036476"
       y1="-0.50471628"
       x1="99.036476"
       gradientUnits="userSpaceOnUse"
       id="linearGradient4119"
       xlink:href="#linearGradient5423-1"
       inkscape:collect="always" />
    <linearGradient
       inkscape:collect="always"
       xlink:href="#linearGradient4829"
       id="linearGradient4538"
       x1="300"
       y1="819.99579"
       x2="300"
       y2="1084.7286"
       gradientUnits="userSpaceOnUse" />
    <linearGradient
       inkscape:collect="always"
       xlink:href="#linearGradient4829"
       id="linearGradient4540"
       gradientUnits="userSpaceOnUse"
       x1="200"
       y1="952.36218"
       x2="400"
       y2="952.36218" />
    <linearGradient
       inkscape:collect="always"
       xlink:href="#linearGradient4829"
       id="linearGradient4542"
       gradientUnits="userSpaceOnUse"
       x1="200"
       y1="952.36218"
       x2="400"
       y2="952.36218" />
    <linearGradient
       inkscape:collect="always"
       xlink:href="#linearGradient4829"
       id="linearGradient4544"
       gradientUnits="userSpaceOnUse"
       x1="200"
       y1="952.36218"
       x2="400"
       y2="952.36218" />
    <linearGradient
       inkscape:collect="always"
       xlink:href="#linearGradient4829"
       id="linearGradient4546"
       gradientUnits="userSpaceOnUse"
       x1="200"
       y1="952.36218"
       x2="400"
       y2="952.36218" />
    <linearGradient
       inkscape:collect="always"
       xlink:href="#linearGradient4829"
       id="linearGradient4548"
       gradientUnits="userSpaceOnUse"
       x1="200"
       y1="952.36218"
       x2="400"
       y2="952.36218" />
    <linearGradient
       inkscape:collect="always"
       xlink:href="#linearGradient4829"
       id="linearGradient4550"
       gradientUnits="userSpaceOnUse"
       x1="200"
       y1="952.36218"
       x2="400"
       y2="952.36218" />
  </defs>
  <sodipodi:namedview
     id="base"
     pagecolor="#ffffff"
     bordercolor="#666666"
     borderopacity="1.0"
     inkscape:pageopacity="0.0"
     inkscape:pageshadow="2"
     inkscape:zoom="2.1675"
     inkscape:cx="116.52982"
     inkscape:cy="103.53294"
     inkscape:document-units="px"
     inkscape:current-layer="layer1"
     showgrid="false"
     inkscape:window-width="1920"
     inkscape:window-height="1025"
     inkscape:window-x="1920"
     inkscape:window-y="27"
     inkscape:window-maximized="1"
     inkscape:snap-from-guide="true"
     showguides="true"
     inkscape:guide-bbox="true">
    <sodipodi:guide
       position="200,0"
       orientation="-200,0"
       id="guide3766" />
    <sodipodi:guide
       position="0,200"
       orientation="200,0"
       id="guide3127" />
    <sodipodi:guide
       position="0,-2.6171874e-06"
       orientation="0,100"
       id="guide3129" />
    <sodipodi:guide
       position="100,-2.6171874e-06"
       orientation="-200,0"
       id="guide3131" />
    <sodipodi:guide
       position="100,200"
       orientation="0,-100"
       id="guide3133" />
  </sodipodi:namedview>
  <metadata
     id="metadata7">
    <rdf:RDF>
      <cc:Work
         rdf:about="">
        <dc:format>image/svg+xml</dc:format>
        <dc:type
           rdf:resource="http://purl.org/dc/dcmitype/StillImage" />
        <dc:title />
      </cc:Work>
    </rdf:RDF>
  </metadata>
  <g
     inkscape:label="Layer 1"
     inkscape:groupmode="layer"
     id="layer1"
     transform="translate(0,-852.36218)">
    <path
       sodipodi:type="arc"
       style="color:#000000;fill:url(#linearGradient4835);fill-opacity:1;fill-rule:nonzero;stroke:none;stroke-width:9.13434315;marker:none;visibility:visible;display:inline;overflow:visible;enable-background:accumulate"
       id="path4188"
       sodipodi:cx="100"
       sodipodi:cy="100"
       sodipodi:rx="100"
       sodipodi:ry="100"
       d="M 200,100 A 100,100 0 0 1 100,200 100,100 0 0 1 0,100 100,100 0 0 1 100,0 100,100 0 0 1 200,100 Z"
       transform="translate(0,852.36219)" />
    <path
       sodipodi:type="arc"
       style="color:#000000;fill:url(#linearGradient5473);fill-opacity:1.0;fill-rule:nonzero;stroke:none;stroke-width:9.13434315;marker:none;visibility:visible;display:inline;overflow:visible;enable-background:accumulate"
       id="path4188-6"
       sodipodi:cx="100"
       sodipodi:cy="100"
       sodipodi:rx="100"
       sodipodi:ry="100"
       d="M 200,100 A 100,100 0 0 1 100,200 100,100 0 0 1 0,100 100,100 0 0 1 100,0 100,100 0 0 1 200,100 Z"
       transform="matrix(0.91020408,0,0,0.91020408,8.9795918,861.34178)" />
    <g
       id="g4524"
       style="fill:url(#linearGradient4538);fill-opacity:1"
       transform="matrix(0.68627451,0,0,0.68627451,-105.88235,298.78029)">
      <path
         id="path4485"
         transform="translate(0,852.36218)"
         d="M 300,0 A 100,100 0 0 0 200,100 100,100 0 0 0 300,200 100,100 0 0 0 400,100 100,100 0 0 0 300,0 Z m 0,12.722656 A 87.27697,87.27697 0 0 1 387.27734,100 87.27697,87.27697 0 0 1 300,187.27734 87.27697,87.27697 0 0 1 212.72266,100 87.27697,87.27697 0 0 1 300,12.722656 Z"
         style="opacity:1;fill:url(#linearGradient4540);fill-opacity:1;stroke:none;stroke-width:9;stroke-miterlimit:4;stroke-dasharray:none;stroke-opacity:1"
         inkscape:connector-curvature="0" />
      <path
         id="path4485-0"
         transform="translate(0,852.36218)"
         d="M 300,38.822266 A 61.178452,61.178452 0 0 0 238.82227,100 61.178452,61.178452 0 0 0 300,161.17773 61.178452,61.178452 0 0 0 361.17773,100 61.178452,61.178452 0 0 0 300,38.822266 Z m 0,12.070312 A 49.107887,49.107887 0 0 1 349.10742,100 49.107887,49.107887 0 0 1 300,149.10742 49.107887,49.107887 0 0 1 250.89258,100 49.107887,49.107887 0 0 1 300,50.892578 Z"
         style="opacity:1;fill:url(#linearGradient4542);fill-opacity:1;stroke:none;stroke-width:9;stroke-miterlimit:4;stroke-dasharray:none;stroke-opacity:1"
         inkscape:connector-curvature="0" />
      <path
         inkscape:connector-curvature="0"
         id="path4516"
         d="m 220.53057,911.64707 26.75893,14.99423 26.75894,-28.3737 -16.83967,-27.45098 c 0,0 -31.37255,14.76355 -36.6782,40.83045 z"
         style="fill:url(#linearGradient4544);fill-opacity:1;fill-rule:evenodd;stroke:none;stroke-width:1px;stroke-linecap:butt;stroke-linejoin:miter;stroke-opacity:1" />
      <path
         inkscape:connector-curvature="0"
         id="path4518"
         d="m 326.18224,898.72896 15.91695,-27.2203 14.76356,7.61246 21.91464,32.06459 -31.60323,18.22376 -5.30565,-15.22491 z"
         style="fill:url(#linearGradient4546);fill-opacity:1;fill-rule:evenodd;stroke:none;stroke-width:1px;stroke-linecap:butt;stroke-linejoin:miter;stroke-opacity:1" />
      <path
         inkscape:connector-curvature="0"
         id="path4520"
         d="m 352.7105,978.08306 31.37254,18.45444 -14.99423,23.2987 -27.91234,11.0727 -17.7624,-28.3737 z"
         style="fill:url(#linearGradient4548);fill-opacity:1;fill-rule:evenodd;stroke:none;stroke-width:1px;stroke-linecap:butt;stroke-linejoin:miter;stroke-opacity:1" />
      <path
         inkscape:connector-curvature="0"
         id="path4522"
         d="m 258.59285,1030.6782 15.22491,-24.6828 -26.75894,-27.45098 -27.45098,15.68627 7.61246,19.37711 z"
         style="fill:url(#linearGradient4550);fill-opacity:1;fill-rule:evenodd;stroke:none;stroke-width:1px;stroke-linecap:butt;stroke-linejoin:miter;stroke-opacity:1" />
    </g>
  </g>
</svg>

<svg xmlns="http://www.w3.org/2000/svg" xmlns:xlink="http://www.w3.org/1999/xlink" width="200" height="200"><defs><linearGradient id="b"><stop offset="0" stop-color="#db6651"/><stop offset="1" stop-color="#d44d45"/></linearGradient><linearGradient id="a"><stop offset="0" stop-color="#f4fbfc"/><stop offset="1" stop-color="#d6d6d6"/></linearGradient><linearGradient xlink:href="#a" id="c" x1="102.3" y1="-.4" x2="102.3" y2="199.2" gradientUnits="userSpaceOnUse"/><linearGradient xlink:href="#b" id="d" x1="99" y1="-.5" x2="99" y2="199.8" gradientUnits="userSpaceOnUse"/><linearGradient xlink:href="#a" id="e" x1="300" y1="820" x2="300" y2="1084.7" gradientUnits="userSpaceOnUse"/><linearGradient xlink:href="#a" id="f" gradientUnits="userSpaceOnUse" x1="200" y1="952.4" x2="400" y2="952.4"/><linearGradient xlink:href="#a" id="g" gradientUnits="userSpaceOnUse" x1="200" y1="952.4" x2="400" y2="952.4"/><linearGradient xlink:href="#a" id="h" gradientUnits="userSpaceOnUse" x1="200" y1="952.4" x2="400" y2="952.4"/><linearGradient xlink:href="#a" id="i" gradientUnits="userSpaceOnUse" x1="200" y1="952.4" x2="400" y2="952.4"/><linearGradient xlink:href="#a" id="j" gradientUnits="userSpaceOnUse" x1="200" y1="952.4" x2="400" y2="952.4"/><linearGradient xlink:href="#a" id="k" gradientUnits="userSpaceOnUse" x1="200" y1="952.4" x2="400" y2="952.4"/></defs><path d="M200 100a100 100 0 0 1-100 100A100 100 0 0 1 0 100 100 100 0 0 1 100 0a100 100 0 0 1 100 100z" color="#000" fill="url(#c)" overflow="visible"/><path d="M200 100a100 100 0 0 1-100 100A100 100 0 0 1 0 100 100 100 0 0 1 100 0a100 100 0 0 1 100 100z" transform="translate(8.98 8.98) scale(.9102)" color="#000" fill="url(#d)" overflow="visible"/><g transform="translate(-105.882 -553.582) scale(.6863)" fill="url(#e)"><path transform="translate(0 852.362)" d="M300 0a100 100 0 0 0-100 100 100 100 0 0 0 100 100 100 100 0 0 0 100-100A100 100 0 0 0 300 0zm0 12.7a87.3 87.3 0 0 1 87.3 87.3 87.3 87.3 0 0 1-87.3 87.3 87.3 87.3 0 0 1-87.3-87.3A87.3 87.3 0 0 1 300 12.7z" fill="url(#f)"/><path transform="translate(0 852.362)" d="M300 38.8a61.2 61.2 0 0 0-61.2 61.2 61.2 61.2 0 0 0 61.2 61.2 61.2 61.2 0 0 0 61.2-61.2A61.2 61.2 0 0 0 300 38.8zm0 12a49 49 0 0 1 49 49.2 49 49 0 0 1-49 49 49 49 0 0 1-49-49 49 49 0 0 1 49-49z" fill="url(#g)"/><path d="M220.5 911.6l26.8 15 26.7-28.3-16.8-27.5s-31.4 14.8-36.7 40.8z" fill="url(#h)" fill-rule="evenodd"/><path d="M326.2 898.7l16-27.2L357 879l21.7 32.3-31.6 18.2-5-15.2z" fill="url(#i)" fill-rule="evenodd"/><path d="M352.7 978l31.4 18.5-15 23.3-27.4 11-17.8-28.3z" fill="url(#j)" fill-rule="evenodd"/><path d="M258.6 1030.7l15.2-24.7-26.7-27.5-27 15.7 7.6 19.4z" fill="url(#k)" fill-rule="evenodd"/></g></svg>
